svg/300/sharp/fit_screen.svg

<svg xmlns="http://www.w3.org/2000/svg" width="48" height="48" viewBox="0 -960 960 960"><path d="M814.615-607.307v-127.308H687.307v-45.384h172.692v172.692h-45.384Zm-714.614 0v-172.692h172.692v45.384H145.385v127.308h-45.384Zm587.306 427.306v-45.384h127.308v-127.308h45.384v172.692H687.307Zm-587.306 0v-172.692h45.384v127.308h127.308v45.384H100.001Zm127.693-127.693v-344.612h504.612v344.612H227.694Zm45.384-45.384h413.844v-253.844H273.078v253.844Zm0 0v-253.844 253.844Z"/></svg>

<svg xmlns="http://www.w3.org/2000/svg" width="48" height="48" viewBox="0 -960 960 960"><path d="M814.61-607.31v-127.3h-127.3V-780H860v172.69h-45.39Zm-714.61 0V-780h172.69v45.39h-127.3v127.3H100ZM687.31-180v-45.39h127.3v-127.3H860V-180H687.31ZM100-180v-172.69h45.39v127.3h127.3V-180H100Zm127.69-127.69v-344.62h504.62v344.62H227.69Zm45.39-45.39h413.84v-253.84H273.08v253.84Zm0 0v-253.84 253.84Z"/></svg>
